!!!COM: Anon.
!!!OTL: Song of the Swan
!!!ODT: <1918//
!!!MPN: Marolipa [Buffalo Bull Head, Ben Benson]
!!!MLC: Fort Berthold Reservation, North Dakota, United States of America
!! Song was recorded during either the summer of 1912, 1915, or 1918.
!!!AGN: monody
!!!AST: Songs Connected With Eagle Catching
!!!AMT: irregular
!!!RWG: Transcribed pitches, durations, and meters are only approximate.
!! Drum not recorded.
**kern
*ICvox
*Imale
*clefF4
*k[]
*M3/4
*MM88
=1-
8c
8c
8.c
16e
4e
=2
2d
4d
=3
4g
8.d
16e
4d
=4
2c
4c
=5
8c
8c
8.c
16e
4c
=6
8c
8c
[4c
8.c]
16G
*M2/4
=7
(12c
12c
12c)
8.c
16G
=8
4A
4A
*M3/4
=9
2c
4c
=10
8e
8e
8c
8d
4d
=11
4c
4.c
8G
*M2/4
=12
(12c
12c
12c)
8.c
16G
*M3/4
=13
4A
4A
4A
*M2/4
=14
(12c
12G
12A)
8.A
16G
=15
4A
(8A
8G)
==
*-
!!!CNT: Mandan
!!!TXO: Mandan
!!!OCY: United States
!!!OCL: Frances Densmore
!!!YOR: Frances Densmore, "Mandan and Hidatsa Music",
!!!YOR: Bulletin 80, page 79, No. 29
!!!PPR: Smithsonian Institution, Bureau of American Ethnology
!!!PPR: Government Printing Office
!!!PDT: 1923
!!!PPP: Washington, DC, United States of America
!!!YEC: Electronic Copyright 2000 David Huron
!!!YER: August 2000
!!!YEN: United States of America
!!!ENC: David Huron
!!!RDT: August 16, 2000
!!!EEV: Release 1.0
!!!AIN: tom, vox
